;FLAVOR:Marlin
;TIME:13436
;Filament used: 10.2422m
;Layer height: 0.2
;MINX:38.52
;MINY:38.52
;MINZ:0.2
;MAXX:181.48
;MAXY:181.48
;MAXZ:5
;Generated with Cura_SteamEngine main
M140 S60
M105
M190 S60
M104 S200
M105
M109 S200
M82 ;absolute extrusion mode
; Ender 3 Custom Start G-code
G92 E0 ; Reset Extruder
G28 ; Home all axes
G1 Z2.0 F3000 ; Move Z Axis up little to prevent scratching of Heat Bed
G1 X0.1 Y20 Z0.3 F5000.0 ; Move to start position
G1 X0.1 Y200.0 Z0.3 F1500.0 E15 ; Draw the first line
G1 X0.4 Y200.0 Z0.3 F5000.0 ; Move to side a little
G1 X0.4 Y20 Z0.3 F1500.0 E30 ; Draw the second line
G92 E0 ; Reset Extruder
G1 Z2.0 F3000 ; Move Z Axis up little to prevent scratching of Heat Bed
G1 X5 Y20 Z0.3 F5000.0 ; Move over to prevent blob squish
G92 E0
G92 E0
G1 F2700 E-5
;LAYER_COUNT:25
;LAYER:0
M107
G0 F6000 X59.544 Y59.37 Z0.2
G0 X58.593 Y60.358
;TYPE:SKIRT
G1 F2700 E0
G1 F1200 X59.071 Y59.845 E0.02332
G1 X59.544 Y59.37 E0.04562
G1 X60.595 Y58.378 E0.09369
G1 X63.73 Y55.536 E0.23442
G1 X64.231 Y55.095 E0.25662
G1 X64.744 Y54.672 E0.27874
G1 X65.897 Y53.781 E0.3272
G1 X69.421 Y51.169 E0.4731
G1 X69.834 Y50.873 E0.49
G1 X70.387 Y50.502 E0.51215
G1 X71.624 Y49.727 E0.5607
G1 X75.352 Y47.494 E0.70523
G1 X75.808 Y47.23 E0.72276
G1 X76.4 Y46.911 E0.74512
G1 X77.747 Y46.24 E0.79518
G1 X81.459 Y44.485 E0.93174
G1 X82.129 Y44.179 E0.95624
G1 X82.771 Y43.911 E0.97938
G1 X84.144 Y43.39 E1.02822
G1 X88.011 Y42.007 E1.16482
G1 X88.728 Y41.761 E1.19003
G1 X89.389 Y41.559 E1.21302
G1 X90.776 Y41.183 E1.26081
G1 X94.966 Y40.134 E1.40448
G1 X95.495 Y40.009 E1.42255
G1 X96.178 Y39.87 E1.44574
G1 X97.59 Y39.632 E1.49336
G1 X101.889 Y38.995 E1.63791
G1 X102.434 Y38.922 E1.6562
G1 X103.131 Y38.851 E1.6795
G1 X104.354 Y38.766 E1.72028
G1 X108.749 Y38.548 E1.86663
G1 X109.434 Y38.523 E1.88943
G1 X110.136 Y38.52 E1.91278
G1 X111.56 Y38.563 E1.96016
G1 X115.738 Y38.768 E2.09929
G1 X116.448 Y38.812 E2.12295
G1 X117.136 Y38.878 E2.14594
G1 X118.587 Y39.065 E2.1946
G1 X123.244 Y39.762 E2.35122
G1 X124.079 Y39.92 E2.37948
G1 X125.276 Y40.195 E2.42033
G1 X129.715 Y41.306 E2.57253
G1 X130.207 Y41.437 E2.58946
G1 X130.871 Y41.637 E2.61253
G1 X132.259 Y42.104 E2.66124
G1 X136.308 Y43.552 E2.80426
G1 X136.811 Y43.739 E2.82211
G1 X137.476 Y44.012 E2.84602
G1 X138.789 Y44.603 E2.89391
G1 X142.721 Y46.464 E3.03859
G1 X143.166 Y46.681 E3.05506
G1 X143.806 Y47.02 E3.07915
G1 X145.063 Y47.741 E3.12735
G1 X148.67 Y49.903 E3.26722
G1 X149.239 Y50.254 E3.28945
G1 X149.812 Y50.634 E3.31232
G1 X150.999 Y51.479 E3.36078
G1 X154.354 Y53.966 E3.49968
G1 X154.889 Y54.373 E3.52204
G1 X155.446 Y54.827 E3.54594
G1 X156.546 Y55.787 E3.5945
G1 X159.642 Y58.593 E3.73348
G1 X160.155 Y59.071 E3.7568
G1 X160.63 Y59.544 E3.77909
G1 X161.622 Y60.595 E3.82716
G1 X164.464 Y63.73 E3.9679
G1 X164.905 Y64.231 E3.9901
G1 X165.328 Y64.744 E4.01221
G1 X166.219 Y65.897 E4.06068
G1 X168.831 Y69.421 E4.20657
G1 X169.127 Y69.834 E4.22347
G1 X169.498 Y70.387 E4.24562
G1 X170.273 Y71.624 E4.29417
G1 X172.506 Y75.352 E4.43871
G1 X172.77 Y75.808 E4.45623
G1 X173.089 Y76.4 E4.4786
G1 X173.76 Y77.747 E4.52865
G1 X175.515 Y81.459 E4.66522
G1 X175.821 Y82.129 E4.68972
G1 X176.089 Y82.771 E4.71285
G1 X176.61 Y84.144 E4.7617
G1 X177.993 Y88.011 E4.89829
G1 X178.239 Y88.728 E4.92351
G1 X178.441 Y89.389 E4.94649
G1 X178.817 Y90.776 E4.99429
G1 X179.866 Y94.966 E5.13795
G1 X179.991 Y95.495 E5.15603
G1 X180.13 Y96.177 E5.17918
G1 X180.362 Y97.553 E5.22559
G1 X180.983 Y101.733 E5.36615
G1 X181.077 Y102.426 E5.38941
G1 X181.148 Y103.128 E5.41287
G1 X181.246 Y104.559 E5.46058
G1 X181.452 Y108.749 E5.60011
G1 X181.477 Y109.432 E5.62284
G1 X181.48 Y110.135 E5.64622
G1 X181.437 Y111.56 E5.69364
G1 X181.232 Y115.738 E5.83277
G1 X181.188 Y116.448 E5.85643
G1 X181.122 Y117.136 E5.87942
G1 X180.935 Y118.587 E5.92808
G1 X180.238 Y123.244 E6.08469
G1 X180.08 Y124.079 E6.11296
G1 X179.805 Y125.276 E6.15381
G1 X178.694 Y129.715 E6.306
G1 X178.563 Y130.207 E6.32294
G1 X178.363 Y130.871 E6.346
G1 X177.896 Y132.259 E6.39471
G1 X176.449 Y136.304 E6.5376
G1 X176.263 Y136.805 E6.55537
G1 X175.989 Y137.475 E6.57945
G1 X175.492 Y138.584 E6.61987
G1 X173.536 Y142.721 E6.77207
G1 X173.319 Y143.166 E6.78854
G1 X172.98 Y143.806 E6.81262
G1 X172.259 Y145.063 E6.86082
G1 X170.097 Y148.67 E7.00069
G1 X169.746 Y149.239 E7.02293
G1 X169.366 Y149.812 E7.0458
G1 X168.521 Y150.999 E7.09426
G1 X166.034 Y154.354 E7.23316
G1 X165.627 Y154.889 E7.25552
G1 X165.173 Y155.446 E7.27942
G1 X164.213 Y156.546 E7.32798
G1 X161.407 Y159.642 E7.46695
G1 X160.929 Y160.155 E7.49027
G1 X160.456 Y160.63 E7.51257
G1 X159.405 Y161.622 E7.56064
G1 X156.27 Y164.464 E7.70138
G1 X155.769 Y164.905 E7.72357
G1 X155.256 Y165.328 E7.74569
G1 X154.103 Y166.219 E7.79415
G1 X150.579 Y168.831 E7.94005
G1 X150.166 Y169.127 E7.95695
G1 X149.613 Y169.498 E7.9791
G1 X148.376 Y170.273 E8.02765
G1 X144.648 Y172.506 E8.17218
G1 X144.192 Y172.77 E8.18971
G1 X143.6 Y173.089 E8.21208
G1 X142.253 Y173.76 E8.26213
G1 X138.541 Y175.515 E8.39869
G1 X137.871 Y175.821 E8.42319
G1 X137.229 Y176.089 E8.44633
G1 X135.856 Y176.61 E8.49517
G1 X131.989 Y177.993 E8.63177
G1 X131.272 Y178.239 E8.65698
G1 X130.611 Y178.441 E8.67997
G1 X129.224 Y178.817 E8.72777
G1 X125.034 Y179.866 E8.87143
G1 X124.505 Y179.991 E8.88951
G1 X123.822 Y180.13 E8.91269
G1 X122.41 Y180.368 E8.96031
G1 X118.111 Y181.005 E9.10486
G1 X117.566 Y181.078 E9.12315
G1 X116.869 Y181.149 E9.14645
G1 X115.646 Y181.234 E9.18723
G1 X111.251 Y181.452 E9.33358
G1 X110.566 Y181.477 E9.35638
G1 X109.864 Y181.48 E9.37973
G1 X108.44 Y181.437 E9.42712
G1 X104.262 Y181.232 E9.56624
G1 X103.552 Y181.188 E9.5899
G1 X102.864 Y181.122 E9.61289
G1 X101.413 Y180.935 E9.66155
G1 X96.756 Y180.238 E9.81817
G1 X95.921 Y180.08 E9.84643
G1 X94.724 Y179.805 E9.88728
G1 X90.285 Y178.694 E10.03948
G1 X89.793 Y178.563 E10.05641
G1 X89.129 Y178.363 E10.07948
G1 X87.741 Y177.896 E10.12819
G1 X83.692 Y176.448 E10.27121
G1 X83.189 Y176.261 E10.28906
G1 X82.524 Y175.988 E10.31297
G1 X81.211 Y175.397 E10.36086
G1 X77.278 Y173.536 E10.50558
G1 X76.831 Y173.318 E10.52212
G1 X76.191 Y172.979 E10.5462
G1 X74.937 Y172.259 E10.5943
G1 X71.33 Y170.097 E10.73417
G1 X70.761 Y169.746 E10.7564
G1 X70.188 Y169.366 E10.77927
G1 X69.001 Y168.521 E10.82773
G1 X65.646 Y166.034 E10.96664
G1 X65.106 Y165.623 E10.98921
G1 X64.553 Y165.172 E11.01294
G1 X63.454 Y164.213 E11.06145
G1 X60.358 Y161.407 E11.20043
G1 X59.845 Y160.929 E11.22375
G1 X59.37 Y160.456 E11.24605
G1 X58.378 Y159.405 E11.29411
G1 X55.536 Y156.27 E11.43485
G1 X55.095 Y155.769 E11.45705
G1 X54.672 Y155.256 E11.47917
G1 X53.781 Y154.103 E11.52763
G1 X51.172 Y150.583 E11.67336
G1 X50.875 Y150.169 E11.69031
G1 X50.499 Y149.61 E11.71271
G1 X49.848 Y148.574 E11.75341
G1 X47.579 Y144.792 E11.9001
G1 X47.228 Y144.188 E11.92334
G1 X46.91 Y143.598 E11.94563
G1 X46.24 Y142.253 E11.99561
G1 X44.485 Y138.541 E12.13217
G1 X44.179 Y137.87 E12.1567
G1 X43.909 Y137.225 E12.17996
G1 X43.39 Y135.856 E12.22865
G1 X42.007 Y131.989 E12.36525
G1 X41.761 Y131.272 E12.39046
G1 X41.559 Y130.611 E12.41345
G1 X41.183 Y129.224 E12.46124
G1 X40.134 Y125.034 E12.6049
G1 X40.009 Y124.505 E12.62298
G1 X39.87 Y123.822 E12.64617
G1 X39.632 Y122.41 E12.69379
G1 X38.995 Y118.111 E12.83834
G1 X38.922 Y117.566 E12.85663
G1 X38.851 Y116.869 E12.87993
G1 X38.766 Y115.646 E12.9207
G1 X38.548 Y111.251 E13.06706
G1 X38.523 Y110.568 E13.08979
G1 X38.52 Y109.865 E13.11318
G1 X38.563 Y108.44 E13.16059
G1 X38.768 Y104.262 E13.29972
G1 X38.812 Y103.552 E13.32338
G1 X38.878 Y102.864 E13.34637
G1 X39.065 Y101.413 E13.39503
G1 X39.762 Y96.756 E13.55165
G1 X39.92 Y95.921 E13.57991
G1 X40.195 Y94.724 E13.62076
G1 X41.306 Y90.285 E13.77296
G1 X41.437 Y89.793 E13.78989
G1 X41.637 Y89.129 E13.81296
G1 X42.104 Y87.741 E13.86166
G1 X43.551 Y83.696 E14.00455
G1 X43.737 Y83.195 E14.02233
G1 X44.011 Y82.525 E14.0464
G1 X44.508 Y81.416 E14.08682
G1 X46.464 Y77.279 E14.23902
G1 X46.681 Y76.834 E14.25549
G1 X47.02 Y76.194 E14.27958
G1 X47.741 Y74.937 E14.32778
G1 X49.903 Y71.33 E14.46765
G1 X50.254 Y70.761 E14.48988
G1 X50.634 Y70.188 E14.51275
G1 X51.479 Y69.001 E14.56121
G1 X53.966 Y65.646 E14.70011
G1 X54.373 Y65.111 E14.72247
G1 X54.827 Y64.554 E14.74637
G1 X55.787 Y63.454 E14.79493
G1 X58.593 Y60.358 E14.93391
G1 F2700 E9.93391
G0 F6000 X54.371 Y65.773
G1 F2700 E14.93391
G1 F1200 X54.691 Y65.353 E14.95147
G1 X55.129 Y64.816 E14.97452
G1 X55.944 Y63.88 E15.01579
G1 X59.002 Y60.505 E15.16727
G1 X59.363 Y60.119 E15.18485
G1 X59.819 Y59.66 E15.20637
G1 X60.697 Y58.829 E15.24658
G1 X64.129 Y55.717 E15.40067
G1 X64.495 Y55.396 E15.41686
G1 X64.989 Y54.988 E15.43817
G1 X66.136 Y54.102 E15.48637
G1 X69.654 Y51.494 E15.63203
G1 X70.067 Y51.198 E15.64893
G1 X70.6 Y50.84 E15.67028
G1 X71.637 Y50.188 E15.71103
G1 X75.552 Y47.84 E15.86286
G1 X76.008 Y47.576 E15.88039
G1 X76.579 Y47.269 E15.90195
G1 X77.918 Y46.602 E15.95171
G1 X81.63 Y44.847 E16.08827
G1 X82.295 Y44.543 E16.11259
G1 X82.914 Y44.285 E16.13489
G1 X84.278 Y43.767 E16.18342
G1 X88.145 Y42.384 E16.32002
G1 X88.857 Y42.14 E16.34505
G1 X89.494 Y41.945 E16.36721
G1 X90.873 Y41.571 E16.41473
G1 X95.058 Y40.523 E16.55822
G1 X95.587 Y40.398 E16.5763
G1 X96.245 Y40.265 E16.59863
G1 X97.649 Y40.028 E16.64599
G1 X101.793 Y39.413 E16.78533
G1 X102.487 Y39.319 E16.80862
G1 X103.159 Y39.251 E16.83109
G1 X104.597 Y39.153 E16.87902
G1 X108.769 Y38.948 E17.01795
G1 X109.448 Y38.923 E17.04055
G1 X110.125 Y38.92 E17.06307
G1 X111.322 Y38.954 E17.1029
G1 X115.873 Y39.176 E17.25444
G1 X116.422 Y39.211 E17.27274
G1 X117.085 Y39.275 E17.2949
G1 X118.528 Y39.461 E17.34329
G1 X123.185 Y40.158 E17.4999
G1 X123.989 Y40.31 E17.52712
G1 X125.186 Y40.585 E17.56797
G1 X129.461 Y41.654 E17.71453
G1 X130.104 Y41.824 E17.73666
G1 X130.744 Y42.016 E17.75888
G1 X131.923 Y42.411 E17.80023
G1 X136.169 Y43.927 E17.95019
G1 X136.672 Y44.114 E17.96804
G1 X137.312 Y44.377 E17.99105
G1 X138.618 Y44.964 E18.03867
G1 X142.546 Y46.823 E18.18321
G1 X142.991 Y47.04 E18.19968
G1 X143.608 Y47.367 E18.22291
G1 X144.858 Y48.084 E18.27083
G1 X148.465 Y50.246 E18.4107
G1 X149.028 Y50.594 E18.43272
G1 X149.58 Y50.96 E18.45475
G1 X150.76 Y51.8 E18.50292
G1 X154.227 Y54.371 E18.64648
G1 X154.647 Y54.691 E18.66404
G1 X155.184 Y55.129 E18.68709
G1 X156.12 Y55.944 E18.72837
G1 X159.495 Y59.002 E18.87985
G1 X159.881 Y59.363 E18.89743
G1 X160.34 Y59.819 E18.91895
G1 X161.171 Y60.697 E18.95915
G1 X164.283 Y64.129 E19.11324
G1 X164.604 Y64.495 E19.12944
G1 X165.012 Y64.989 E19.15075
G1 X165.898 Y66.136 E19.19895
G1 X168.506 Y69.654 E19.34461
G1 X168.802 Y70.067 E19.36151
G1 X169.16 Y70.6 E19.38286
G1 X169.812 Y71.637 E19.4236
G1 X172.16 Y75.552 E19.57544
G1 X172.424 Y76.008 E19.59296
G1 X172.731 Y76.579 E19.61453
G1 X173.398 Y77.918 E19.66428
G1 X175.153 Y81.63 E19.80085
G1 X175.457 Y82.295 E19.82517
G1 X175.715 Y82.914 E19.84747
G1 X176.233 Y84.278 E19.896
G1 X177.616 Y88.145 E20.03259
G1 X177.86 Y88.857 E20.05763
G1 X178.055 Y89.494 E20.07978
G1 X178.429 Y90.873 E20.12731
G1 X179.477 Y95.058 E20.2708
G1 X179.602 Y95.587 E20.28888
G1 X179.735 Y96.244 E20.31117
G1 X179.966 Y97.611 E20.35728
G1 X180.587 Y101.791 E20.49784
G1 X180.68 Y102.48 E20.52096
G1 X180.749 Y103.156 E20.54356
G1 X180.846 Y104.578 E20.59097
G1 X181.052 Y108.768 E20.7305
G1 X181.077 Y109.446 E20.75306
G1 X181.08 Y110.124 E20.77561
G1 X181.046 Y111.322 E20.81547
G1 X180.824 Y115.873 E20.96702
G1 X180.789 Y116.422 E20.98532
G1 X180.725 Y117.085 E21.00747
G1 X180.539 Y118.528 E21.05586
G1 X179.842 Y123.185 E21.21248
G1 X179.69 Y123.989 E21.2397
G1 X179.415 Y125.186 E21.28055
G1 X178.346 Y129.461 E21.42711
G1 X178.176 Y130.104 E21.44923
G1 X177.984 Y130.744 E21.47146
G1 X177.589 Y131.923 E21.51281
G1 X176.074 Y136.164 E21.6626
G1 X175.888 Y136.665 E21.68037
G1 X175.624 Y137.311 E21.70358
G1 X175.036 Y138.618 E21.75125
G1 X173.177 Y142.546 E21.89579
G1 X172.96 Y142.991 E21.91226
G1 X172.633 Y143.608 E21.93548
G1 X171.916 Y144.858 E21.98341
G1 X169.754 Y148.465 E22.12328
G1 X169.406 Y149.028 E22.14529
G1 X169.04 Y149.58 E22.16732
G1 X168.2 Y150.76 E22.2155
G1 X165.629 Y154.227 E22.35906
G1 X165.309 Y154.647 E22.37662
G1 X164.871 Y155.184 E22.39967
G1 X164.056 Y156.12 E22.44095
G1 X160.998 Y159.495 E22.59242
G1 X160.637 Y159.881 E22.61
G1 X160.181 Y160.34 E22.63152
G1 X159.303 Y161.171 E22.67173
G1 X155.871 Y164.283 E22.82582
G1 X155.505 Y164.604 E22.84201
G1 X155.011 Y165.012 E22.86332
G1 X153.864 Y165.898 E22.91153
G1 X150.346 Y168.506 E23.05718
G1 X149.933 Y168.802 E23.07408
G1 X149.4 Y169.16 E23.09544
G1 X148.363 Y169.812 E23.13618
G1 X144.448 Y172.16 E23.28802
G1 X143.992 Y172.424 E23.30554
G1 X143.421 Y172.731 E23.3271
G1 X142.082 Y173.398 E23.37686
G1 X138.37 Y175.153 E23.51342
G1 X137.705 Y175.457 E23.53774
G1 X137.086 Y175.715 E23.56005
G1 X135.722 Y176.233 E23.60857
G1 X131.855 Y177.616 E23.74517
G1 X131.143 Y177.86 E23.7702
G1 X130.506 Y178.055 E23.79236
G1 X129.127 Y178.429 E23.83988
G1 X124.942 Y179.477 E23.98337
G1 X124.413 Y179.602 E24.00145
G1 X123.755 Y179.735 E24.02378
G1 X122.351 Y179.972 E24.07114
G1 X118.207 Y180.587 E24.21048
G1 X117.513 Y180.681 E24.23377
G1 X116.841 Y180.749 E24.25624
G1 X115.403 Y180.847 E24.30418
G1 X111.231 Y181.052 E24.4431
G1 X110.552 Y181.077 E24.4657
G1 X109.875 Y181.08 E24.48822
G1 X108.678 Y181.046 E24.52805
G1 X104.127 Y180.824 E24.6796
G1 X103.578 Y180.789 E24.69789
G1 X102.915 Y180.725 E24.72005
G1 X101.472 Y180.539 E24.76844
G1 X96.815 Y179.842 E24.92506
G1 X96.011 Y179.69 E24.95227
G1 X94.814 Y179.415 E24.99312
G1 X90.539 Y178.346 E25.13969
G1 X89.896 Y178.176 E25.16181
G1 X89.256 Y177.984 E25.18403
G1 X88.077 Y177.589 E25.22539
G1 X83.831 Y176.073 E25.37534
G1 X83.328 Y175.886 E25.39319
G1 X82.688 Y175.623 E25.4162
G1 X81.382 Y175.036 E25.46383
G1 X77.567 Y173.231 E25.6042
G1 X77.007 Y172.958 E25.62492
G1 X76.389 Y172.632 E25.64816
G1 X75.142 Y171.916 E25.69599
G1 X71.535 Y169.754 E25.83586
G1 X70.972 Y169.406 E25.85787
G1 X70.42 Y169.04 E25.8799
G1 X69.24 Y168.2 E25.92807
G1 X65.885 Y165.713 E26.06698
G1 X65.349 Y165.305 E26.08938
G1 X64.816 Y164.871 E26.11224
G1 X63.881 Y164.057 E26.15347
G1 X60.505 Y160.998 E26.305
G1 X60.119 Y160.637 E26.32258
G1 X59.66 Y160.181 E26.3441
G1 X58.829 Y159.303 E26.38431
G1 X55.717 Y155.871 E26.53839
G1 X55.396 Y155.505 E26.55459
G1 X54.988 Y155.011 E26.5759
G1 X54.102 Y153.864 E26.6241
G1 X51.497 Y150.35 E26.76959
G1 X51.2 Y149.936 E26.78654
G1 X50.838 Y149.397 E26.80813
G1 X50.07 Y148.17 E26.85628
G1 X47.839 Y144.446 E27.00066
G1 X47.574 Y143.988 E27.01826
G1 X47.268 Y143.419 E27.03975
G1 X46.602 Y142.082 E27.08943
G1 X44.847 Y138.37 E27.226
G1 X44.543 Y137.705 E27.25032
G1 X44.283 Y137.082 E27.27277
G1 X43.767 Y135.722 E27.32115
G1 X42.384 Y131.855 E27.45774
G1 X42.14 Y131.143 E27.48278
G1 X41.945 Y130.506 E27.50494
G1 X41.571 Y129.127 E27.55246
G1 X40.523 Y124.942 E27.69595
G1 X40.398 Y124.413 E27.71403
G1 X40.265 Y123.755 E27.73636
G1 X40.028 Y122.351 E27.78371
G1 X39.413 Y118.207 E27.92305
G1 X39.319 Y117.513 E27.94635
G1 X39.251 Y116.841 E27.96881
G1 X39.153 Y115.403 E28.01675
G1 X38.942 Y111.088 E28.16044
G1 X38.923 Y110.554 E28.17821
G1 X38.92 Y109.876 E28.20076
G1 X38.954 Y108.678 E28.24062
G1 X39.176 Y104.127 E28.39217
G1 X39.211 Y103.578 E28.41047
G1 X39.275 Y102.915 E28.43262
G1 X39.461 Y101.472 E28.48101
G1 X40.158 Y96.815 E28.63763
G1 X40.31 Y96.011 E28.66485
G1 X40.585 Y94.814 E28.7057
G1 X41.654 Y90.539 E28.85226
G1 X41.824 Y89.896 E28.87438
G1 X42.016 Y89.256 E28.89661
G1 X42.411 Y88.077 E28.93796
G1 X43.926 Y83.836 E29.08775
