;FLAVOR:Marlin
;TIME:8338
;Filament used: 6.81694m
;Layer height: 0.2
;MINX:40.02
;MINY:40.021
;MINZ:0.2
;MAXX:179.979
;MAXY:179.979
;MAXZ:110.113
;Generated with Cura_SteamEngine main
M140 S60
M105
M190 S60
M104 S200
M105
M109 S200
M82 ;absolute extrusion mode
; Ender 3 Custom Start G-code
G92 E0 ; Reset Extruder
G28 ; Home all axes
G1 Z2.0 F3000 ; Move Z Axis up little to prevent scratching of Heat Bed
G1 X0.1 Y20 Z0.3 F5000.0 ; Move to start position
G1 X0.1 Y200.0 Z0.3 F1500.0 E15 ; Draw the first line
G1 X0.4 Y200.0 Z0.3 F5000.0 ; Move to side a little
G1 X0.4 Y20 Z0.3 F1500.0 E30 ; Draw the second line
G92 E0 ; Reset Extruder
G1 Z2.0 F3000 ; Move Z Axis up little to prevent scratching of Heat Bed
G1 X5 Y20 Z0.3 F5000.0 ; Move over to prevent blob squish
G92 E0
G92 E0
G1 F2700 E-5
;LAYER_COUNT:550
;LAYER:0
M107
G0 F6000 X60.598 Y60.439 Z0.2
G0 X59.763 Y61.301
;TYPE:SKIRT
G1 F2700 E0
G1 F1200 X60.129 Y60.91 E0.01781
G1 X60.598 Y60.439 E0.03992
G1 X61.692 Y59.407 E0.08994
G1 X64.781 Y56.608 E0.22859
G1 X65.183 Y56.255 E0.24638
G1 X65.696 Y55.832 E0.2685
G1 X66.851 Y54.938 E0.31707
G1 X70.125 Y52.511 E0.45262
G1 X70.672 Y52.118 E0.47503
G1 X71.218 Y51.751 E0.49691
G1 X72.467 Y50.968 E0.54594
G1 X76.055 Y48.82 E0.68503
G1 X76.533 Y48.544 E0.70338
G1 X77.117 Y48.23 E0.72544
G1 X78.438 Y47.572 E0.77452
G1 X82.036 Y45.87 E0.90691
G1 X82.72 Y45.557 E0.93193
G1 X83.357 Y45.291 E0.95489
G1 X84.667 Y44.793 E1.0015
G1 X88.56 Y43.401 E1.13901
G1 X89.137 Y43.203 E1.1593
G1 X89.796 Y43.001 E1.18222
G1 X91.003 Y42.672 E1.22383
G1 X95.261 Y41.604 E1.36984
G1 X95.8 Y41.477 E1.38826
G1 X96.481 Y41.339 E1.41137
G1 X97.676 Y41.136 E1.45169
G1 X102.068 Y40.484 E1.59936
G1 X102.594 Y40.414 E1.61701
G1 X103.28 Y40.345 E1.63995
G1 X104.724 Y40.246 E1.68809
G1 X108.703 Y40.05 E1.82059
G1 X109.443 Y40.024 E1.84522
G1 X110.129 Y40.021 E1.86803
G1 X111.585 Y40.064 E1.91648
G1 X115.596 Y40.262 E2.05005
G1 X116.301 Y40.306 E2.07354
G1 X117 Y40.372 E2.0969
G1 X118.428 Y40.556 E2.14478
G1 X122.382 Y41.143 E2.27774
G1 X123.081 Y41.255 E2.30128
G1 X123.789 Y41.393 E2.32527
G1 X125.215 Y41.722 E2.37395
G1 X129.312 Y42.75 E2.51444
G1 X129.797 Y42.88 E2.53114
G1 X130.433 Y43.071 E2.55323
G1 X131.583 Y43.455 E2.59355
G1 X135.783 Y44.956 E2.7419
G1 X136.249 Y45.13 E2.75844
G1 X136.893 Y45.394 E2.78159
G1 X137.995 Y45.887 E2.82174
G1 X141.985 Y47.774 E2.96854
G1 X142.477 Y48.014 E2.98675
G1 X143.119 Y48.354 E3.01091
G1 X144.357 Y49.065 E3.0584
G1 X147.926 Y51.205 E3.19681
G1 X148.384 Y51.487 E3.2147
G1 X148.988 Y51.887 E3.23879
G1 X150.169 Y52.729 E3.28703
G1 X153.531 Y55.224 E3.42628
G1 X153.93 Y55.528 E3.44296
G1 X154.486 Y55.981 E3.46682
G1 X155.618 Y56.969 E3.51679
G1 X158.555 Y59.632 E3.64865
G1 X159.103 Y60.143 E3.67357
G1 X159.582 Y60.619 E3.69603
G1 X160.556 Y61.651 E3.74323
G1 X163.288 Y64.665 E3.87853
G1 X163.725 Y65.16 E3.90049
G1 X164.165 Y65.692 E3.92346
G1 X164.936 Y66.687 E3.96532
G1 X167.487 Y70.123 E4.10766
G1 X167.882 Y70.672 E4.13015
G1 X168.249 Y71.218 E4.15203
G1 X169.032 Y72.467 E4.20106
G1 X171.18 Y76.055 E4.34015
G1 X171.456 Y76.533 E4.35851
G1 X171.77 Y77.117 E4.38056
G1 X172.428 Y78.438 E4.42965
G1 X174.13 Y82.036 E4.56203
G1 X174.444 Y82.725 E4.58722
G1 X174.703 Y83.347 E4.60963
G1 X175.217 Y84.698 E4.6577
G1 X176.588 Y88.533 E4.79316
G1 X176.803 Y89.16 E4.81521
G1 X177.002 Y89.808 E4.83775
G1 X177.318 Y90.963 E4.87758
G1 X178.398 Y95.27 E5.02527
G1 X178.517 Y95.772 E5.04243
G1 X178.66 Y96.476 E5.06632
G1 X178.901 Y97.913 E5.11478
G1 X179.492 Y101.896 E5.24871
G1 X179.583 Y102.567 E5.27123
G1 X179.654 Y103.26 E5.2944
G1 X179.754 Y104.716 E5.34294
G1 X179.952 Y108.76 E5.4776
G1 X179.976 Y109.441 E5.50027
G1 X179.979 Y110.126 E5.52305
G1 X179.936 Y111.586 E5.57163
G1 X179.729 Y115.755 E5.71047
G1 X179.695 Y116.299 E5.72859
G1 X179.628 Y117.003 E5.75212
G1 X179.446 Y118.412 E5.79937
G1 X178.852 Y122.417 E5.93403
G1 X178.744 Y123.09 E5.9567
G1 X178.606 Y123.795 E5.9806
G1 X178.287 Y125.177 E6.02777
G1 X177.249 Y129.315 E6.16966
G1 X177.122 Y129.79 E6.18602
G1 X176.93 Y130.43 E6.20824
G1 X176.55 Y131.569 E6.24818
G1 X175.046 Y135.778 E6.39684
G1 X174.873 Y136.242 E6.41331
G1 X174.607 Y136.892 E6.43667
G1 X174.113 Y137.996 E6.4769
G1 X172.223 Y141.993 E6.62395
G1 X171.983 Y142.484 E6.64213
G1 X171.648 Y143.115 E6.66589
G1 X170.941 Y144.347 E6.71313
G1 X168.858 Y147.823 E6.84791
G1 X168.499 Y148.405 E6.87066
G1 X168.114 Y148.987 E6.89387
G1 X167.406 Y149.985 E6.93457
G1 X164.776 Y153.531 E7.0814
G1 X164.467 Y153.937 E7.09837
G1 X164.015 Y154.493 E7.12221
G1 X163.202 Y155.428 E7.16342
G1 X160.229 Y158.706 E7.31061
G1 X159.859 Y159.101 E7.32861
G1 X159.392 Y159.57 E7.35062
G1 X158.322 Y160.579 E7.39954
G1 X155.215 Y163.394 E7.53898
G1 X154.821 Y163.74 E7.55642
G1 X154.298 Y164.172 E7.57898
G1 X153.114 Y165.086 E7.62873
G1 X149.747 Y167.582 E7.76813
G1 X149.342 Y167.873 E7.78472
G1 X148.777 Y168.253 E7.80737
G1 X147.751 Y168.898 E7.84768
G1 X143.904 Y171.204 E7.99685
G1 X143.467 Y171.457 E8.01365
G1 X142.868 Y171.779 E8.03627
G1 X141.609 Y172.405 E8.08303
G1 X137.904 Y174.158 E8.21936
G1 X137.289 Y174.439 E8.24185
G1 X136.66 Y174.702 E8.26452
G1 X135.531 Y175.133 E8.30472
G1 X131.329 Y176.636 E8.45315
G1 X130.862 Y176.796 E8.46957
G1 X130.19 Y177.003 E8.49296
G1 X128.786 Y177.383 E8.54133
G1 X124.727 Y178.399 E8.6805
G1 X124.185 Y178.526 E8.69902
G1 X123.513 Y178.661 E8.72181
G1 X122.092 Y178.9 E8.76974
G1 X118.096 Y179.493 E8.9041
G1 X117.402 Y179.586 E8.92739
G1 X116.72 Y179.655 E8.95019
G1 X115.292 Y179.753 E8.9978
G1 X111.232 Y179.953 E9.133
G1 X110.569 Y179.977 E9.15506
G1 X109.866 Y179.979 E9.17845
G1 X108.416 Y179.936 E9.22669
G1 X104.388 Y179.737 E9.36083
G1 X103.718 Y179.696 E9.38316
G1 X103.005 Y179.628 E9.40698
G1 X101.547 Y179.44 E9.45587
G1 X97.487 Y178.837 E9.59239
G1 X96.921 Y178.746 E9.61146
G1 X96.208 Y178.607 E9.63562
G1 X95 Y178.33 E9.67684
G1 X90.688 Y177.25 E9.82469
G1 X90.203 Y177.12 E9.84139
G1 X89.567 Y176.929 E9.86347
G1 X88.417 Y176.545 E9.9038
G1 X84.217 Y175.044 E10.05214
G1 X83.751 Y174.87 E10.06869
G1 X83.107 Y174.606 E10.09184
G1 X82.005 Y174.113 E10.13199
G1 X78.007 Y172.222 E10.27909
G1 X77.514 Y171.981 E10.29734
G1 X76.882 Y171.646 E10.32113
G1 X75.653 Y170.941 E10.36826
G1 X72.177 Y168.858 E10.50304
G1 X71.595 Y168.499 E10.52578
G1 X71.013 Y168.114 E10.54899
G1 X70.015 Y167.406 E10.58969
G1 X66.466 Y164.774 E10.73665
G1 X66.059 Y164.464 E10.75366
G1 X65.507 Y164.014 E10.77735
G1 X64.399 Y163.048 E10.82624
G1 X61.423 Y160.348 E10.95989
G1 X60.912 Y159.872 E10.98312
G1 X60.428 Y159.391 E11.00581
G1 X59.417 Y158.319 E11.05482
G1 X56.712 Y155.335 E11.18878
G1 X56.267 Y154.831 E11.21114
G1 X55.827 Y154.298 E11.23413
G1 X54.942 Y153.152 E11.28229
G1 X52.422 Y149.753 E11.42302
G1 X52.142 Y149.364 E11.43896
G1 X51.758 Y148.793 E11.46185
G1 X50.948 Y147.5 E11.5126
G1 X48.895 Y144.073 E11.64547
G1 X48.542 Y143.464 E11.66888
G1 X48.227 Y142.878 E11.69101
G1 X47.575 Y141.566 E11.73974
G1 X45.805 Y137.823 E11.87745
G1 X45.557 Y137.279 E11.89733
G1 X45.289 Y136.639 E11.92041
G1 X44.874 Y135.552 E11.95911
G1 X43.354 Y131.305 E12.10914
G1 X43.202 Y130.859 E12.12481
G1 X43.001 Y130.204 E12.1476
G1 X42.672 Y128.997 E12.18921
G1 X41.604 Y124.739 E12.33522
G1 X41.477 Y124.2 E12.35364
G1 X41.339 Y123.519 E12.37675
G1 X41.136 Y122.324 E12.41706
G1 X40.484 Y117.932 E12.56474
G1 X40.414 Y117.406 E12.58239
G1 X40.345 Y116.72 E12.60532
G1 X40.246 Y115.276 E12.65346
G1 X40.05 Y111.297 E12.78596
G1 X40.023 Y110.557 E12.81059
G1 X40.02 Y109.857 E12.83388
G1 X40.062 Y108.452 E12.88063
G1 X40.262 Y104.391 E13.01586
G1 X40.305 Y103.7 E13.03889
G1 X40.371 Y103.009 E13.06197
G1 X40.555 Y101.576 E13.11003
G1 X41.16 Y97.504 E13.24695
G1 X41.249 Y96.947 E13.26571
G1 X41.39 Y96.223 E13.29024
G1 X41.723 Y94.779 E13.33953
G1 X42.692 Y90.914 E13.47206
G1 X42.882 Y90.198 E13.4967
G1 X43.08 Y89.535 E13.51971
G1 X43.445 Y88.444 E13.55798
G1 X44.96 Y84.205 E13.7077
G1 X45.128 Y83.754 E13.72371
G1 X45.401 Y83.088 E13.74765
G1 X45.899 Y81.979 E13.78808
G1 X47.727 Y78.111 E13.93037
G1 X48.021 Y77.509 E13.95266
G1 X48.353 Y76.882 E13.97625
G1 X49.046 Y75.675 E14.02255
G1 X51.143 Y72.176 E14.15822
G1 X51.501 Y71.595 E14.18092
G1 X51.886 Y71.013 E14.20413
G1 X52.594 Y70.015 E14.24483
G1 X55.229 Y66.463 E14.39193
G1 X55.54 Y66.055 E14.40899
G1 X55.988 Y65.504 E14.43261
G1 X56.796 Y64.575 E14.47356
G1 X59.763 Y61.301 E14.62052
G1 F2700 E9.62052
G0 F6000 X55.547 Y66.705
G1 F2700 E14.62052
G1 F1200 X55.858 Y66.297 E14.63758
G1 X56.29 Y65.767 E14.66032
G1 X57.243 Y64.674 E14.70855
G1 X60.055 Y61.574 E14.84776
G1 X60.421 Y61.183 E14.86557
G1 X60.873 Y60.729 E14.88688
G1 X61.96 Y59.703 E14.93659
G1 X64.92 Y57.02 E15.06947
G1 X65.447 Y56.556 E15.09282
G1 X65.941 Y56.148 E15.11413
G1 X66.902 Y55.402 E15.1546
G1 X70.503 Y52.731 E15.30372
G1 X70.905 Y52.443 E15.32016
G1 X71.431 Y52.09 E15.34123
G1 X72.672 Y51.311 E15.38997
G1 X76.255 Y49.166 E15.52886
G1 X76.733 Y48.89 E15.54722
G1 X77.296 Y48.587 E15.56848
G1 X78.609 Y47.934 E15.61726
G1 X82.344 Y46.168 E15.75467
G1 X82.886 Y45.921 E15.77448
G1 X83.499 Y45.665 E15.79658
G1 X84.802 Y45.17 E15.84294
G1 X88.695 Y43.778 E15.98045
G1 X89.266 Y43.582 E16.00053
G1 X89.901 Y43.387 E16.02262
G1 X91.108 Y43.058 E16.06423
G1 X95.208 Y42.029 E16.20482
G1 X95.892 Y41.867 E16.2282
G1 X96.548 Y41.734 E16.25047
G1 X97.964 Y41.496 E16.29822
G1 X101.965 Y40.903 E16.43275
G1 X102.647 Y40.811 E16.45564
G1 X103.308 Y40.744 E16.47774
G1 X104.743 Y40.646 E16.52558
G1 X108.878 Y40.443 E16.66327
G1 X109.457 Y40.423 E16.68254
G1 X110.118 Y40.421 E16.70453
G1 X111.566 Y40.464 E16.75271
G1 X115.719 Y40.67 E16.89101
G1 X116.276 Y40.705 E16.90957
G1 X116.949 Y40.769 E16.93206
G1 X118.37 Y40.952 E16.97971
G1 X122.453 Y41.559 E17.117
G1 X123.018 Y41.65 E17.13604
G1 X123.699 Y41.783 E17.15911
G1 X125.117 Y42.11 E17.20752
G1 X129.208 Y43.136 E17.3478
G1 X129.693 Y43.266 E17.3645
G1 X130.306 Y43.451 E17.38579
G1 X131.669 Y43.908 E17.43361
G1 X135.505 Y45.28 E17.56911
G1 X136.109 Y45.505 E17.59055
G1 X136.73 Y45.759 E17.61286
G1 X138.038 Y46.347 E17.66056
G1 X141.809 Y48.133 E17.79934
G1 X142.301 Y48.373 E17.81755
G1 X142.921 Y48.701 E17.84088
G1 X143.969 Y49.301 E17.88104
G1 X147.717 Y51.546 E18.02635
G1 X148.175 Y51.828 E18.04424
G1 X148.756 Y52.213 E18.06742
G1 X149.754 Y52.922 E18.10814
G1 X153.289 Y55.542 E18.25449
G1 X153.688 Y55.846 E18.27117
G1 X154.224 Y56.283 E18.29417
G1 X155.349 Y57.265 E18.34384
G1 X158.286 Y59.928 E18.4757
G1 X158.83 Y60.435 E18.50043
G1 X159.292 Y60.894 E18.52209
G1 X160.26 Y61.92 E18.56901
G1 X162.992 Y64.934 E18.70431
G1 X163.425 Y65.424 E18.72606
G1 X163.849 Y65.937 E18.7482
G1 X164.62 Y66.932 E18.79006
G1 X167.269 Y70.503 E18.93794
G1 X167.557 Y70.905 E18.95439
G1 X167.91 Y71.431 E18.97546
G1 X168.689 Y72.672 E19.0242
G1 X170.834 Y76.255 E19.16309
G1 X171.11 Y76.733 E19.18145
G1 X171.413 Y77.296 E19.20271
G1 X172.066 Y78.609 E19.25149
G1 X173.838 Y82.358 E19.38941
G1 X174.08 Y82.891 E19.40888
G1 X174.33 Y83.49 E19.43046
G1 X174.761 Y84.618 E19.47063
G1 X176.263 Y88.814 E19.61886
G1 X176.425 Y89.289 E19.63555
G1 X176.616 Y89.914 E19.65729
G1 X176.99 Y91.291 E19.70474
G1 X178.009 Y95.362 E19.84432
G1 X178.128 Y95.864 E19.86148
G1 X178.266 Y96.543 E19.88453
G1 X178.472 Y97.762 E19.92565
G1 X179.117 Y102.099 E20.07148
G1 X179.187 Y102.62 E20.08897
G1 X179.255 Y103.288 E20.1113
G1 X179.341 Y104.51 E20.15204
G1 X179.559 Y108.933 E20.29933
G1 X179.577 Y109.455 E20.31671
G1 X179.579 Y110.115 E20.33866
G1 X179.545 Y111.338 E20.37935
G1 X179.337 Y115.592 E20.52101
G1 X179.295 Y116.274 E20.54373
G1 X179.231 Y116.953 E20.56642
G1 X179.08 Y118.138 E20.60615
G1 X178.435 Y122.495 E20.75264
G1 X178.349 Y123.027 E20.77057
G1 X178.217 Y123.706 E20.79357
G1 X177.949 Y124.874 E20.83343
G1 X176.904 Y129.05 E20.97661
G1 X176.735 Y129.687 E20.99853
G1 X176.55 Y130.304 E21.01995
G1 X176.096 Y131.658 E21.06745
G1 X174.72 Y135.505 E21.20334
G1 X174.498 Y136.102 E21.22453
G1 X174.242 Y136.728 E21.24702
G1 X173.653 Y138.038 E21.29479
G1 X171.921 Y141.697 E21.42944
G1 X171.623 Y142.308 E21.45205
G1 X171.301 Y142.917 E21.47496
G1 X170.706 Y143.957 E21.51481
G1 X168.439 Y147.742 E21.66155
G1 X168.159 Y148.195 E21.67927
G1 X167.787 Y148.755 E21.70163
G1 X166.946 Y149.937 E21.74988
G1 X164.458 Y153.289 E21.88872
G1 X164.149 Y153.695 E21.90569
G1 X163.713 Y154.23 E21.92864
G1 X162.752 Y155.332 E21.97728
G1 X159.937 Y158.433 E22.11657
G1 X159.567 Y158.828 E22.13457
G1 X159.118 Y159.279 E22.15574
G1 X158.054 Y160.283 E22.2044
G1 X155.077 Y162.982 E22.33805
G1 X154.557 Y163.44 E22.3611
G1 X154.053 Y163.856 E22.38283
G1 X152.876 Y164.765 E22.43229
G1 X149.643 Y167.163 E22.56617
G1 X149.108 Y167.548 E22.5881
G1 X148.565 Y167.914 E22.60988
G1 X147.539 Y168.559 E22.65018
G1 X143.704 Y170.858 E22.7989
G1 X143.267 Y171.111 E22.8157
G1 X142.689 Y171.422 E22.83753
G1 X141.437 Y172.044 E22.88402
G1 X137.732 Y173.797 E23.02035
G1 X137.123 Y174.075 E23.04262
G1 X136.517 Y174.328 E23.06446
G1 X135.176 Y174.838 E23.11218
G1 X131.332 Y176.212 E23.24795
G1 X130.733 Y176.418 E23.26902
G1 X130.085 Y176.617 E23.29156
G1 X128.9 Y176.94 E23.33242
G1 X124.793 Y177.971 E23.47325
G1 X124.093 Y178.136 E23.49717
G1 X123.446 Y178.267 E23.51913
G1 X122.033 Y178.504 E23.56678
G1 X117.877 Y179.12 E23.70652
G1 X117.35 Y179.19 E23.7242
G1 X116.692 Y179.256 E23.7462
G1 X115.273 Y179.353 E23.79351
G1 X111.213 Y179.553 E23.92871
G1 X110.555 Y179.577 E23.9506
G1 X109.878 Y179.58 E23.97312
G1 X108.656 Y179.545 E24.01378
G1 X104.275 Y179.33 E24.15967
G1 X103.743 Y179.297 E24.1774
G1 X103.056 Y179.232 E24.20035
G1 X101.819 Y179.074 E24.24183
G1 X97.55 Y178.442 E24.38536
G1 X96.984 Y178.351 E24.40443
G1 X96.298 Y178.217 E24.42768
G1 X95.09 Y177.94 E24.4689
G1 X90.792 Y176.864 E24.61626
G1 X90.307 Y176.734 E24.63296
G1 X89.694 Y176.549 E24.65426
G1 X88.331 Y176.092 E24.70207
G1 X84.495 Y174.72 E24.83757
G1 X83.891 Y174.495 E24.85901
G1 X83.27 Y174.241 E24.88133
G1 X81.962 Y173.653 E24.92903
G1 X78.303 Y171.921 E25.06367
G1 X77.69 Y171.622 E25.08635
G1 X77.08 Y171.299 E25.10931
G1 X75.858 Y170.597 E25.15619
G1 X72.258 Y168.439 E25.29579
G1 X71.805 Y168.159 E25.3135
G1 X71.245 Y167.787 E25.33586
G1 X70.063 Y166.946 E25.38411
G1 X66.708 Y164.456 E25.52307
G1 X66.301 Y164.146 E25.54009
G1 X65.769 Y163.713 E25.5629
G1 X64.835 Y162.901 E25.60407
G1 X61.692 Y160.052 E25.74516
G1 X61.185 Y159.58 E25.7682
G1 X60.718 Y159.116 E25.79009
G1 X59.865 Y158.214 E25.83138
G1 X56.906 Y154.952 E25.97787
G1 X56.567 Y154.567 E25.99493
G1 X56.143 Y154.053 E26.01709
G1 X55.263 Y152.914 E26.06496
G1 X52.836 Y149.642 E26.20046
G1 X52.467 Y149.13 E26.22145
G1 X52.096 Y148.58 E26.24352
G1 X51.41 Y147.489 E26.28638
G1 X49.15 Y143.718 E26.4326
G1 X48.888 Y143.264 E26.45004
G1 X48.585 Y142.7 E26.47133
G1 X47.936 Y141.395 E26.51981
G1 X46.232 Y137.793 E26.65234
G1 X45.921 Y137.113 E26.67721
G1 X45.663 Y136.497 E26.69942
G1 X45.17 Y135.199 E26.7456
G1 X43.785 Y131.327 E26.88238
G1 X43.581 Y130.73 E26.90336
G1 X43.387 Y130.099 E26.92532
G1 X43.058 Y128.892 E26.96693
G1 X42.029 Y124.792 E27.10752
G1 X41.867 Y124.108 E27.1309
G1 X41.734 Y123.452 E27.15317
G1 X41.496 Y122.036 E27.20092
G1 X40.903 Y118.035 E27.33545
G1 X40.811 Y117.353 E27.35834
G1 X40.744 Y116.692 E27.38044
G1 X40.646 Y115.257 E27.42828
G1 X40.45 Y111.278 E27.56078
G1 X40.423 Y110.543 E27.58524
G1 X40.42 Y109.868 E27.60769
G1 X40.453 Y108.695 E27.64672
G1 X40.67 Y104.262 E27.79434
G1 X40.704 Y103.725 E27.81224
G1 X40.767 Y103.06 E27.83445
G1 X40.92 Y101.855 E27.87485
G1 X41.555 Y97.567 E28.01903
